static/img/svg/news.svg

<svg xmlns="http://www.w3.org/2000/svg" width="24" height="24" viewBox="0 0 24 24"><path d="M21,3H2.99c-0.553,0-1,0.447-1,1v16c0,0.553,0.447,1,1,1H21c0.553,0,1-0.447,1-1V4C22,3.447,21.553,3,21,3z M20,19H3.99V5 H20V19z"/><path d="M7 13h5c.553 0 1-.447 1-1V8c0-.553-.447-1-1-1H7C6.447 7 6 7.447 6 8v4C6 12.553 6.447 13 7 13zM8 9h3v2H8V9zM6 15H18V17H6zM15 7H18V9H15zM15 11H18V13H15z"/></svg>

<svg xmlns="http://www.w3.org/2000/svg" width="24" height="24" viewBox="0 0 24 24"><path d="M21 3H2.99a1 1 0 0 0-1 1v16a1 1 0 0 0 1 1H21a1 1 0 0 0 1-1V4a1 1 0 0 0-1-1zm-1 16H3.99V5H20v14z"/><path d="M7 13h5a1 1 0 0 0 1-1V8a1 1 0 0 0-1-1H7a1 1 0 0 0-1 1v4a1 1 0 0 0 1 1zm1-4h3v2H8V9zM6 15h12v2H6zM15 7h3v2h-3zM15 11h3v2h-3z"/></svg>
